src/lib/packages/icons/src/assets/filled/thumbtack.svg

<svg width="24" height="24" viewBox="0 0 24 24" fill="none" xmlns="http://www.w3.org/2000/svg">
<path d="M20.195 11.0328L16.786 13.2389C16.135 13.6599 15.743 14.3819 15.743 15.1569C15.743 17.0779 14.98 18.92 13.622 20.278L3.72301 10.3778C5.08101 9.01982 6.923 8.25697 8.844 8.25697C9.619 8.25697 10.341 7.864 10.762 7.214L12.968 3.80482C13.487 3.00282 14.33 2.60097 15.288 3.55897L20.442 8.71278C21.4 9.67078 20.997 10.5138 20.195 11.0328ZM2.468 20.4699C2.178 20.7599 2.178 21.2399 2.468 21.5299C2.618 21.6799 2.808 21.7499 2.998 21.7499C3.188 21.7499 3.378 21.6799 3.528 21.5299L9.198 15.86L8.138 14.7999L2.468 20.4699Z" fill="currentColor"/>
</svg>

<svg xmlns="http://www.w3.org/2000/svg" width="24" height="24" fill="none"><path fill="currentColor" d="m20.195 11.033-3.409 2.206a2.283 2.283 0 0 0-1.043 1.918 7.242 7.242 0 0 1-2.121 5.121l-9.899-9.9a7.242 7.242 0 0 1 5.121-2.121c.775 0 1.497-.393 1.918-1.043l2.206-3.41c.519-.801 1.362-1.203 2.32-.245l5.154 5.154c.958.958.555 1.8-.247 2.32ZM2.468 20.47c-.29.29-.29.77 0 1.06.15.15.34.22.53.22s.38-.07.53-.22l5.67-5.67-1.06-1.06-5.67 5.67Z"/></svg>
